X: 31781
T: Patrick's Night
R: reel
M: 4/4
K: Dmajor
|:AG|FD D/E/D EDB,A,|DEFA BddB|AF F/G/F dBAF|E2 DF EDB,D|
FD D/E/D EDB,A,|DEFA BddB|AF F/G/F dBAF|E^DEF =D2:|
|:FA|d/e/d ce dBAF|DF F2 DEFA|d/e/d ce dBAc|BEFA Be e/4f/4e/c|
dfec dcdB|AF F2 BFAF|DEFA dBAF|E^DEF =D2:|

